X: 3680
T: Billy Craib's
R: reel
M: 4/4
K: Dmajor
A2|d2 (3fed BdAG|FAde fdcd|eAfA gAfA|edcB Aage|
d2 (3fed BdAG|FAde fdcd|eAfA gece|d2 f2 d2:|
cd|e2 ce Aceg|f2 ef Adfa|^g2 fg efge|a^gab a2
cd|e2 ce Aceg|f2 ef Adfa|gfed cABc|d2 f2 d2
cd|e2 ce Aceg|f2 ef Adfa|^g2 fg efge|a^gab a=gfe|
d2 (3fed BdAG|FAde fdcd|eAfA gece|d2 f2 d2||

